src/assets/icons/microphone.svg

<svg width="14" height="14" viewBox="0 0 14 14" fill="none" xmlns="http://www.w3.org/2000/svg">
<g id="microphone">
<path id="Vector" fill-rule="evenodd" clip-rule="evenodd" d="M7.24155 1.15069C7.74019 1.15069 8.1391 1.58028 8.1391 2.1096V7.77869C8.1391 8.30801 7.73251 8.7376 7.24155 8.7376H6.76594C6.2673 8.7376 5.86839 8.30801 5.86839 7.77869V2.1096C5.86839 1.58028 6.27497 1.15069 6.76594 1.15069H7.24155ZM7.24155 0H6.76594C5.63059 0 4.7177 0.943568 4.7177 2.1096V7.77869C4.7177 8.94473 5.63826 9.8883 6.76594 9.8883H7.24155C8.3769 9.8883 9.28979 8.94473 9.28979 7.77869V2.1096C9.28979 0.943568 8.36923 0 7.24155 0ZM3.16043 4.13493C3.47818 4.13493 3.73578 4.39252 3.73578 4.71027V7.95521C3.73578 9.54595 5.0338 10.8396 6.62785 10.8396H6.98892C6.99385 10.8395 6.99879 10.8394 7.00375 10.8394C7.00871 10.8394 7.01365 10.8395 7.01858 10.8396H7.37197C8.97286 10.8396 10.264 9.54678 10.264 7.95521V4.71027C10.264 4.39252 10.5216 4.13493 10.8394 4.13493C11.1571 4.13493 11.4147 4.39252 11.4147 4.71027V7.95521C11.4147 10.1147 9.71738 11.8776 7.5791 11.9851V13.4247C7.5791 13.7424 7.32151 14 7.00375 14C6.686 14 6.4284 13.7424 6.4284 13.4247V11.9855C4.29413 11.8815 2.58508 10.1178 2.58508 7.95521V4.71027C2.58508 4.39252 2.84267 4.13493 3.16043 4.13493Z" fill="black"/>
</g>
</svg>

<svg xmlns="http://www.w3.org/2000/svg" fill="none" viewBox="0 0 14 14"><path fill="#000" fill-rule="evenodd" d="M7.242 1.15c.498 0 .897.43.897.96v5.669c0 .529-.406.959-.897.959h-.476c-.499 0-.898-.43-.898-.96V2.11c0-.53.407-.96.898-.96zm0-1.15h-.476C5.63 0 4.718.944 4.718 2.11v5.669c0 1.166.92 2.11 2.048 2.11h.476c1.135 0 2.048-.944 2.048-2.11v-5.67C9.29.945 8.37 0 7.242 0M3.16 4.135c.318 0 .576.258.576.575v3.245a2.89 2.89 0 0 0 2.892 2.885h.744c1.6 0 2.892-1.293 2.892-2.885V4.71a.575.575 0 0 1 1.15 0v3.245a4.037 4.037 0 0 1-3.835 4.03v1.44a.575.575 0 0 1-1.15 0v-1.44a4.04 4.04 0 0 1-3.844-4.03V4.71c0-.317.258-.575.575-.575" clip-rule="evenodd"/></svg>
